assets/svg/Truck.svg

<svg width="64" height="48" viewBox="0 0 64 48" fill="none" xmlns="http://www.w3.org/2000/svg">
<path d="M56.86 30.7C56.86 32.92 55.86 32.96 54.55 32.96H41.73C41.6372 32.96 41.5482 32.9231 41.4825 32.8575C41.4169 32.7918 41.38 32.7028 41.38 32.61V14.87C41.38 14.7772 41.4169 14.6881 41.4825 14.6225C41.5482 14.5569 41.6372 14.52 41.73 14.52H50.47C50.9782 14.5818 51.4671 14.7523 51.9037 15.0197C52.3402 15.2871 52.7141 15.6453 53 16.07C53 16.07 56.9 20.69 56.9 24.5L56.86 30.7Z" fill="#FF8E1F"/>
<path d="M50.36 27.92H56.86V30.7C56.86 32.92 55.86 32.96 54.55 32.96H50.36V27.92Z" fill="#081B31"/>
<path d="M43.52 20.07V15.15H50.06C50.5386 15.1469 51.0102 15.2644 51.4314 15.4916C51.8526 15.7188 52.2098 16.0484 52.47 16.45C53.673 17.9247 54.6813 19.548 55.47 21.28V24.76C51 24.77 43.52 20.92 43.52 20.07Z" fill="#081B31"/>
<path d="M50.06 15.43C50.496 15.4263 50.9258 15.5336 51.3089 15.7417C51.6921 15.9499 52.0159 16.2522 52.25 16.62C53.4081 18.0493 54.3824 19.6182 55.15 21.29L52.41 24.03C50.9283 23.6485 49.4802 23.1468 48.08 22.53C45.5 21.41 43.91 20.34 43.77 20.02V15.43H50.06Z" fill="#CED1D6"/>
<path d="M56 22.14C56.15 22.14 56.28 22.36 56.33 22.67C56.6093 22.3843 56.7639 21.9995 56.76 21.6H56.26V18.79H57.33C57.376 18.79 57.4215 18.7991 57.464 18.8167C57.5064 18.8342 57.545 18.86 57.5775 18.8925C57.61 18.925 57.6358 18.9636 57.6534 19.0061C57.671 19.0485 57.68 19.094 57.68 19.14V21.26C57.68 21.3528 57.6431 21.4419 57.5775 21.5075C57.5119 21.5731 57.4228 21.61 57.33 21.61H57.1C57.1403 21.9218 57.0912 22.2387 56.9585 22.5238C56.8257 22.8088 56.6147 23.0502 56.35 23.22C56.35 23.6 56.17 23.88 56 23.88C55.83 23.88 55.64 23.49 55.64 23.02C55.64 22.55 55.75 22.14 56 22.14Z" fill="#081B31"/>
<path d="M56.88 27.36C56.8826 27.5413 56.8658 27.7223 56.83 27.9H55.52C55.2693 27.2578 55.1045 26.5854 55.03 25.9C55.6608 25.8962 56.2872 26.0045 56.88 26.22V27.36Z" fill="#CED1D6"/>
<path d="M46.94 26.71C45.7183 27.18 44.707 28.0747 44.0916 29.2301C43.4763 30.3854 43.2982 31.7239 43.59 33H41.73C41.6372 33 41.5482 32.9631 41.4825 32.8975C41.4169 32.8318 41.38 32.7428 41.38 32.65V26.75L46.94 26.71Z" fill="#081B31"/>
<path d="M42.7 31.79C42.7029 30.6191 43.0987 29.4831 43.824 28.5639C44.5492 27.6446 45.5619 26.9954 46.7 26.72H46.7999C47.1867 26.6286 47.5826 26.5816 47.9799 26.58H48.2799C49.6074 26.6565 50.8553 27.2377 51.7681 28.2045C52.6809 29.1712 53.1896 30.4504 53.1899 31.78C53.1899 31.78 53.1899 31.83 53.1899 31.86H56.77V31.95V32.02V32.09V32.17V32.22L56.72 32.27L56.66 32.32H56.59H56.5299H56.4799H56.41H56.32H42.83C42.7774 32.1457 42.734 31.9688 42.7 31.79Z" fill="#161616"/>
<path d="M45.28 23.98H43.35C43.1567 23.98 43 24.1367 43 24.33V24.9C43 25.0933 43.1567 25.25 43.35 25.25H45.28C45.4733 25.25 45.63 25.0933 45.63 24.9V24.33C45.63 24.1367 45.4733 23.98 45.28 23.98Z" fill="#161616"/>
<path d="M48.24 35.54C50.4657 35.54 52.27 33.7357 52.27 31.51C52.27 29.2843 50.4657 27.48 48.24 27.48C46.0143 27.48 44.21 29.2843 44.21 31.51C44.21 33.7357 46.0143 35.54 48.24 35.54Z" fill="#081B31"/>
<path d="M50.1863 33.4546C51.2602 32.3807 51.2602 30.6395 50.1863 29.5656C49.1124 28.4916 47.3711 28.4916 46.2972 29.5656C45.2233 30.6395 45.2233 32.3807 46.2972 33.4546C47.3711 34.5286 49.1123 34.5286 50.1863 33.4546Z" fill="#CED1D6"/>
<path d="M49.86 29.88C48.79 28.81 49.08 30.56 48.18 31.46C47.28 32.36 45.53 32.06 46.6 33.14C47.67 34.22 47.38 32.46 48.28 31.56C49.18 30.66 50.94 31 49.86 29.88Z" fill="#081B31"/>
<path d="M46.61 29.88C45.54 30.95 47.29 30.66 48.19 31.56C49.09 32.46 48.79 34.21 49.87 33.14C50.95 32.07 49.19 32.36 48.29 31.46C47.39 30.56 47.68 28.81 46.61 29.88Z" fill="#081B31"/>
<path d="M48.7721 32.0404C49.065 31.7475 49.065 31.2727 48.7721 30.9798C48.4792 30.6869 48.0044 30.6869 47.7115 30.9798C47.4186 31.2727 47.4186 31.7475 47.7115 32.0404C48.0044 32.3333 48.4792 32.3333 48.7721 32.0404Z" fill="#CED1D6"/>
<path d="M39.5301 12.46H8.81006C8.1197 12.46 7.56006 13.0196 7.56006 13.71V31.68C7.56006 32.3703 8.1197 32.93 8.81006 32.93H39.5301C40.2204 32.93 40.7801 32.3703 40.7801 31.68V13.71C40.7801 13.0196 40.2204 12.46 39.5301 12.46Z" fill="#FF8E1F"/>
<path d="M40.7801 30.94V31.69C40.7801 32.0215 40.6484 32.3395 40.4139 32.5739C40.1795 32.8083 39.8616 32.94 39.5301 32.94H8.80006C8.472 32.9374 8.15812 32.8059 7.92614 32.5739C7.69415 32.3419 7.56267 32.0281 7.56006 31.7V30.95L40.7801 30.94Z" fill="#161616"/>
<path d="M11 32C11 30.6739 11.5268 29.4021 12.4645 28.4645C13.4021 27.5268 14.6739 27 16 27C17.3261 27 18.5979 27.5268 19.5355 28.4645C20.4732 29.4021 21 30.6739 21 32H11Z" fill="#161616"/>
<path d="M15.95 35.54C18.1758 35.54 19.98 33.7357 19.98 31.51C19.98 29.2843 18.1758 27.48 15.95 27.48C13.7243 27.48 11.92 29.2843 11.92 31.51C11.92 33.7357 13.7243 35.54 15.95 35.54Z" fill="#081B31"/>
<path d="M17.8938 33.4571C18.9678 32.3832 18.9678 30.642 17.8938 29.568C16.8199 28.4941 15.0787 28.4941 14.0047 29.568C12.9308 30.642 12.9308 32.3832 14.0047 33.4571C15.0787 34.5311 16.8199 34.5311 17.8938 33.4571Z" fill="#CED1D6"/>
<path d="M17.58 29.88C16.51 28.81 16.8 30.56 15.9 31.46C15 32.36 13.25 32.06 14.32 33.14C15.39 34.22 15.1 32.46 16 31.56C16.9 30.66 18.65 31 17.58 29.88Z" fill="#081B31"/>
<path d="M14.32 29.88C13.25 30.95 15 30.66 15.9 31.56C16.8 32.46 16.5 34.21 17.58 33.14C18.66 32.07 16.9 32.36 16 31.46C15.1 30.56 15.39 28.81 14.32 29.88Z" fill="#081B31"/>
<path d="M16.4797 32.0429C16.7726 31.75 16.7726 31.2751 16.4797 30.9822C16.1868 30.6893 15.7119 30.6893 15.419 30.9822C15.1261 31.2751 15.1261 31.75 15.419 32.0429C15.7119 32.3358 16.1868 32.3358 16.4797 32.0429Z" fill="#CED1D6"/>
<path d="M56.45 29.23H56.86V30.55H56.45C56.275 30.55 56.1071 30.4805 55.9833 30.3567C55.8596 30.2329 55.79 30.0651 55.79 29.89C55.79 29.715 55.8596 29.5471 55.9833 29.4233C56.1071 29.2995 56.275 29.23 56.45 29.23Z" fill="#CED1D6"/>
<g style="mix-blend-mode:multiply">
<path d="M7.56006 25C7.86142 25.0389 8.13829 25.1862 8.3389 25.4144C8.53951 25.6427 8.65013 25.9361 8.65006 26.24V29C8.65013 29.3039 8.53951 29.5973 8.3389 29.8256C8.13829 30.0538 7.86142 30.2011 7.56006 30.24V25Z" fill="#FF8E1F"/>
</g>
</svg>

<svg width="64" height="48" fill="none" xmlns="http://www.w3.org/2000/svg">
    <path d="M56.86 30.7c0 2.22-1 2.26-2.31 2.26H41.73a.35.35 0 0 1-.35-.35V14.87a.35.35 0 0 1 .35-.35h8.74A3.57 3.57 0 0 1 53 16.07s3.9 4.62 3.9 8.43l-.04 6.2Z" fill="#FF8E1F"/>
    <path d="M50.36 27.92h6.5v2.78c0 2.22-1 2.26-2.31 2.26h-4.19v-5.04ZM43.52 20.07v-4.92h6.54a2.85 2.85 0 0 1 2.41 1.3 22.188 22.188 0 0 1 3 4.83v3.48c-4.47.01-11.95-3.84-11.95-4.69Z" fill="#081B31"/>
    <path d="M50.06 15.43a2.57 2.57 0 0 1 2.19 1.19 22 22 0 0 1 2.9 4.67l-2.74 2.74a28.156 28.156 0 0 1-4.33-1.5c-2.58-1.12-4.17-2.19-4.31-2.51v-4.59h6.29Z" fill="#CED1D6"/>
    <path d="M56 22.14c.15 0 .28.22.33.53.28-.286.434-.67.43-1.07h-.5v-2.81h1.07a.35.35 0 0 1 .35.35v2.12a.35.35 0 0 1-.35.35h-.23a1.661 1.661 0 0 1-.75 1.61c0 .38-.18.66-.35.66-.17 0-.36-.39-.36-.86s.11-.88.36-.88Z" fill="#081B31"/>
    <path d="M56.88 27.36c.003.181-.014.362-.05.54h-1.31a7.825 7.825 0 0 1-.49-2 5.32 5.32 0 0 1 1.85.32v1.14Z" fill="#CED1D6"/>
    <path d="M46.94 26.71A5.44 5.44 0 0 0 43.59 33h-1.86a.35.35 0 0 1-.35-.35v-5.9l5.56-.04Z" fill="#081B31"/>
    <path d="M42.7 31.79a5.229 5.229 0 0 1 4-5.07h.1a5.223 5.223 0 0 1 1.18-.14h.3a5.21 5.21 0 0 1 4.91 5.2v.08h3.58v.36l-.05.05-.06.05H42.83a5.19 5.19 0 0 1-.13-.53ZM45.28 23.98h-1.93a.35.35 0 0 0-.35.35v.57c0 .193.157.35.35.35h1.93a.35.35 0 0 0 .35-.35v-.57a.35.35 0 0 0-.35-.35Z" fill="#161616"/>
    <path d="M48.24 35.54a4.03 4.03 0 1 0 0-8.06 4.03 4.03 0 0 0 0 8.06Z" fill="#081B31"/>
    <path d="M50.186 33.455a2.75 2.75 0 1 0-3.889-3.89 2.75 2.75 0 0 0 3.89 3.89Z" fill="#CED1D6"/>
    <path d="M49.86 29.88c-1.07-1.07-.78.68-1.68 1.58-.9.9-2.65.6-1.58 1.68 1.07 1.08.78-.68 1.68-1.58.9-.9 2.66-.56 1.58-1.68Z" fill="#081B31"/>
    <path d="M46.61 29.88c-1.07 1.07.68.78 1.58 1.68.9.9.6 2.65 1.68 1.58 1.08-1.07-.68-.78-1.58-1.68-.9-.9-.61-2.65-1.68-1.58Z" fill="#081B31"/>
    <path d="M48.772 32.04a.75.75 0 1 0-1.06-1.06.75.75 0 0 0 1.06 1.06Z" fill="#CED1D6"/>
    <path d="M39.53 12.46H8.81c-.69 0-1.25.56-1.25 1.25v17.97c0 .69.56 1.25 1.25 1.25h30.72c.69 0 1.25-.56 1.25-1.25V13.71c0-.69-.56-1.25-1.25-1.25Z" fill="#FF8E1F"/>
    <path d="M40.78 30.94v.75a1.25 1.25 0 0 1-1.25 1.25H8.8a1.25 1.25 0 0 1-1.24-1.24v-.75l33.22-.01Z" fill="#161616"/>
    <path d="M11 32a5 5 0 1 1 10 0H11Z" fill="#161616"/>
    <path d="M15.95 35.54a4.03 4.03 0 1 0 0-8.06 4.03 4.03 0 0 0 0 8.06Z" fill="#081B31"/>
    <path d="M17.894 33.457a2.75 2.75 0 1 0-3.889-3.889 2.75 2.75 0 0 0 3.889 3.89Z" fill="#CED1D6"/>
    <path d="M17.58 29.88c-1.07-1.07-.78.68-1.68 1.58-.9.9-2.65.6-1.58 1.68 1.07 1.08.78-.68 1.68-1.58.9-.9 2.65-.56 1.58-1.68Z" fill="#081B31"/>
    <path d="M14.32 29.88c-1.07 1.07.68.78 1.58 1.68.9.9.6 2.65 1.68 1.58 1.08-1.07-.68-.78-1.58-1.68-.9-.9-.61-2.65-1.68-1.58Z" fill="#081B31"/>
    <path d="M16.48 32.043a.75.75 0 1 0-1.061-1.06.75.75 0 0 0 1.06 1.06ZM56.45 29.23h.41v1.32h-.41a.66.66 0 1 1 0-1.32Z" fill="#CED1D6"/>
    <path d="M7.56 25a1.25 1.25 0 0 1 1.09 1.24V29a1.25 1.25 0 0 1-1.09 1.24V25Z" fill="#FF8E1F" style="mix-blend-mode:multiply"/>
</svg>
